img/svg/star-half-fill.svg

<svg width="18" height="18" viewBox="0 0 18 18" fill="none" xmlns="http://www.w3.org/2000/svg">
<path d="M9 1.61804L10.5451 6.37336L10.6574 6.71885H11.0206H16.0207L11.9755 9.6578L11.6817 9.87132L11.7939 10.2168L13.339 14.9721L9.29389 12.0332L9 11.8197L8.70611 12.0332L4.66099 14.9721L6.20609 10.2168L6.31834 9.87132L6.02445 9.6578L1.97933 6.71885H6.97937H7.34265L7.4549 6.37336L9 1.61804Z" fill="white" stroke="#B0558C"/>
<path d="M8.49997 3.15677L8.5 5.50001V9L8.49994 12.1829L4.66093 14.9721L6.20602 10.2168L6.31828 9.87132L6.02439 9.6578L1.97927 6.71885H6.97931H7.34258L7.45484 6.37336L8.49997 3.15677Z" fill="#B0558C" stroke="#B0558C"/>
</svg>

<svg width="18" height="18" viewBox="0 0 18 18" fill="none" xmlns="http://www.w3.org/2000/svg"><path d="M9 1.618l1.545 4.755.112.346h5.364l-4.046 2.939-.293.213.112.346 1.545 4.755-4.045-2.939L9 11.82l-.294.213-4.045 2.94 1.545-4.756.112-.346-.294-.213-4.045-2.94h5.364l.112-.345L9 1.618z" fill="#fff" stroke="#B0558C"/><path d="M8.5 3.157v9.026l-3.84 2.79 1.546-4.756.112-.346-.294-.213-4.045-2.94h5.364l.112-.345L8.5 3.157z" fill="#B0558C" stroke="#B0558C"/></svg>994 12.1829L4.66093 14.9721L6.20602 10.2168L6.31828 9.87132L6.02439 9.6578L1.97927 6.71885H6.97931H7.34258L7.45484 6.37336L8.49997 3.15677Z" fill="#B0558C" stroke="#B0558C"/>
</svg>
